src/assets/selectIcons/strumento_13.svg

<svg xmlns="http://www.w3.org/2000/svg" viewBox="0 0 512 512" style="height: 512px; width: 512px;"><path d="M0 0h512v512H0z" fill="#000" fill-opacity="1"></path><g class="" transform="translate(0,0)" style=""><path d="M452.7 45.03c-1.2 0-2.3.1-3.6.27-9.8 1.4-26 9.6-42.9 25.9-71.1 68.8-113.7 117.6-132.4 140.3 20.4 2.2 37.9 5.1 51 8.6 5.3-11.8 13.4-23.8 23.5-36.3 24.6-30.5 60.9-63 98.4-98.5 11.9-11.4 17.2-20.3 18.4-25.9.9-4.4-.2-7.8-2.1-10.1-2-2.52-5.5-4.25-10.3-4.27zm-8 8.6c2-.1 3.7.47 4.6 1.67 2.6 3.3-.7 10.1-7.3 15.3-6.6 5.1-14 6.7-16.6 3.4-2.5-3.2.8-10.1 7.4-15.2 4.1-3.25 8.6-5.06 11.9-5.17zM197.3 222.2c-56.6 0-105.84 5.7-130.26 13.8-7.21 2.3-12.46 5.1-15.57 7.8-3.44 3-4.85 6.3-4.85 9.5s1.41 6.5 4.85 9.5c.43.4.89.7 1.4 1.1v158.2c0 15 10.35 28 24.95 31 79.78 18 159.48 19 239.18 0 14.5-3 24.8-16 24.8-31V282.3c-46.5 15.4-117.3 13.8-127.3 1.9 49.3-1 91.2-6.3 113.1-13.6 7.2-2.4 12.5-5.1 15.6-7.8 3.4-3 4.8-6.3 4.8-9.5s-1.4-6.5-4.8-9.5c-3.1-2.7-8.4-5.5-15.6-7.8-24.4-8.1-73.6-13.8-130.3-13.8zm0 12.5c55 0 102.7 5.3 126.4 13.1 4.4 1.5 8 3 10.3 4.7.3.2.7.5 1 .8-.3.3-.7.6-1 .8-2.3 1.7-5.9 3.2-10.3 4.7-23.7 7.8-71.4 13-126.4 13-54.9 0-102.65-5.2-126.33-13-4.45-1.5-7.96-3-10.33-4.7-.32-.2-.69-.5-.99-.8.3-.3.67-.6.99-.8 2.37-1.7 5.88-3.2 10.33-4.7 23.68-7.8 71.43-13.1 126.33-13.1z" fill="#fff" fill-opacity="1"></path></g></svg>

<?xml version="1.0" encoding="UTF-8" standalone="no"?>
<!DOCTYPE svg PUBLIC "-//W3C//DTD SVG 1.1//EN" "http://www.w3.org/Graphics/SVG/1.1/DTD/svg11.dtd">
<svg width="100%" height="100%" viewBox="0 0 512 512" version="1.1" xmlns="http://www.w3.org/2000/svg" xmlns:xlink="http://www.w3.org/1999/xlink" xml:space="preserve" xmlns:serif="http://www.serif.com/" style="fill-rule:evenodd;clip-rule:evenodd;stroke-linejoin:round;stroke-miterlimit:2;">
    <rect x="0" y="0" width="512" height="512" style="fill-rule:nonzero;"/>
    <g>
        <path d="M452.7,45.03C451.5,45.03 450.4,45.13 449.1,45.3C439.3,46.7 423.1,54.9 406.2,71.2C335.1,140 292.5,188.8 273.8,211.5C294.2,213.7 311.7,216.6 324.8,220.1C330.1,208.3 338.2,196.3 348.3,183.8C372.9,153.3 409.2,120.8 446.7,85.3C458.6,73.9 463.9,65 465.1,59.4C466,55 464.9,51.6 463,49.3C461,46.78 457.5,45.05 452.7,45.03ZM444.7,53.63C446.7,53.53 448.4,54.1 449.3,55.3C451.9,58.6 448.6,65.4 442,70.6C435.4,75.7 428,77.3 425.4,74C422.9,70.8 426.2,63.9 432.8,58.8C436.9,55.55 441.4,53.74 444.7,53.63ZM197.3,222.2C140.7,222.2 91.46,227.9 67.04,236C59.83,238.3 54.58,241.1 51.47,243.8C48.03,246.8 46.62,250.1 46.62,253.3C46.62,256.5 48.03,259.8 51.47,262.8C51.9,263.2 52.36,263.5 52.87,263.9L52.87,422.1C52.87,437.1 63.22,450.1 77.82,453.1C157.6,471.1 237.3,472.1 317,453.1C331.5,450.1 341.8,437.1 341.8,422.1L341.8,282.3C295.3,297.7 224.5,296.1 214.5,284.2C263.8,283.2 305.7,277.9 327.6,270.6C334.8,268.2 340.1,265.5 343.2,262.8C346.6,259.8 348,256.5 348,253.3C348,250.1 346.6,246.8 343.2,243.8C340.1,241.1 334.8,238.3 327.6,236C303.2,227.9 254,222.2 197.3,222.2ZM197.3,234.7C252.3,234.7 300,240 323.7,247.8C328.1,249.3 331.7,250.8 334,252.5C334.3,252.7 334.7,253 335,253.3C334.7,253.6 334.3,253.9 334,254.1C331.7,255.8 328.1,257.3 323.7,258.8C300,266.6 252.3,271.8 197.3,271.8C142.4,271.8 94.65,266.6 70.97,258.8C66.52,257.3 63.01,255.8 60.64,254.1C60.32,253.9 59.95,253.6 59.65,253.3C59.95,253 60.32,252.7 60.64,252.5C63.01,250.8 66.52,249.3 70.97,247.8C94.65,240 142.4,234.7 197.3,234.7Z" style="fill:rgb(201,201,201);fill-rule:nonzero;"/>
    </g>
</svg>
